static/icons/collab.svg

<svg width="109" height="100" viewBox="0 0 109 100" fill="none" xmlns="http://www.w3.org/2000/svg">
<path d="M97.2121 57.0437V94.9107H59.3333V78.7945H57.4545C56.4242 80.8545 54.303 82.1874 52 82.1874C48.5454 82.248 45.7576 79.461 45.697 76.0681C45.6363 72.6146 48.4242 69.8276 51.8182 69.767C54.1818 69.767 56.3636 71.0393 57.4545 73.1599H59.3333V57.0437H75.4545C75.4545 58.0737 74.9697 59.1037 74.1818 59.7701C72.7273 61.0425 71.9394 62.9207 72.0606 64.8595C72.303 68.2523 75.3333 70.797 78.7273 70.5546C81.9394 70.3123 84.4242 67.5859 84.4242 64.3748C84.4242 62.5571 83.6363 60.8607 82.2424 59.7095C81.4545 59.0431 81.0303 58.0131 81.0303 56.9831L97.2121 57.0437Z" fill="#9FEFDE"/>
<path d="M92.6061 57.0437H97.2121V94.9107H92.6061V57.0437Z" fill="#24C4A1"/>
<path d="M55.1518 15.4812C56.1821 18.7529 54.4245 22.2063 51.2124 23.2969C49.3336 23.9028 47.273 23.5998 45.6972 22.4487C44.8488 21.8428 43.7578 21.6611 42.7881 21.9034L46.6669 37.5349L30.97 41.4125C30.7275 40.3825 30.9094 39.2919 31.5154 38.4437C32.6669 36.8684 32.97 34.8085 32.3033 32.9303C31.2124 29.6586 27.6972 27.9621 24.4245 29.0527C21.3942 30.0827 19.6366 33.2938 20.3639 36.4443C20.7881 38.2013 22.0003 39.6554 23.576 40.4431C24.4851 40.9278 25.1518 41.776 25.3942 42.7454L9.87905 46.6835L0.727539 9.90714L37.5154 0.758484L41.3942 16.39C42.4245 16.1476 43.273 15.4206 43.7578 14.5118C44.6669 12.7547 46.3033 11.543 48.2427 11.2401C51.273 10.7554 54.1821 12.5124 55.1518 15.4812Z" fill="#9FEFDE"/>
<path d="M55.3942 17.6621C54.0003 15.7233 51.6972 14.8145 49.3336 15.178C47.3942 15.481 45.7579 16.6927 44.8488 18.4497C44.3639 19.4191 43.5154 20.0856 42.4851 20.3279L38.6063 4.69644L1.87905 13.8451L0.727539 9.30107L37.5154 0.152405L41.3942 15.7839C42.4245 15.5415 43.273 14.8145 43.7578 13.9057C44.6669 12.1487 46.3033 10.9369 48.2427 10.634C51.6366 10.0887 54.7882 12.3304 55.3942 15.7233C55.4548 16.3898 55.4548 17.0562 55.3942 17.6621Z" fill="#24C4A1"/>
<path d="M81.0909 57.0437C81.0909 58.0737 81.5757 59.1037 82.3636 59.7701C83.7575 60.9819 84.5454 62.7995 84.4848 64.6171C84.3636 68.01 81.5151 70.7364 78.1212 70.6152C74.7272 70.4941 72.0606 67.7676 72.1212 64.3748C72.1212 62.5571 72.9091 60.8607 74.303 59.7095C75.0909 59.0431 75.5151 58.0737 75.5151 56.9831H59.3333V40.9275C60.3636 40.9275 61.3333 41.3516 62.0606 42.1393C64.303 44.7445 68.1818 45.0475 70.7879 42.8057C72.303 41.5334 73.0909 39.5946 72.9091 37.6558C72.7272 34.6265 70.303 32.1424 67.2121 31.9C65.2727 31.7183 63.3333 32.5059 62.0606 34.0206C61.3939 34.8082 60.3636 35.2929 59.3333 35.2929V19.1161H97.2121V56.9831L81.0909 57.0437Z" fill="#EBECE9"/>
<path d="M97.2121 19.1161V56.9831H92.6666V24.0843H59.3333V19.1767L97.2121 19.1161Z" fill="#C1C1C1"/>
<path d="M45.7576 76.1892C45.8788 79.5215 48.6666 82.1874 52 82.1874C54.303 82.1874 56.4242 80.8544 57.4545 78.7945H59.3333V94.9107H21.4545V57.0437H37.5757C37.5757 56.0137 37.1515 55.0443 36.3636 54.3173C33.7576 52.0756 33.4545 48.198 35.6969 45.5927C36.9697 44.078 38.9091 43.2904 40.8485 43.4116C43.8788 43.5933 46.3636 46.0168 46.606 49.1068C46.7879 51.0456 46 52.9844 44.4848 54.2567C43.6969 54.9231 43.2121 55.9531 43.2121 56.9831H59.3333V73.0993H57.4545C55.9394 70.0699 52.1818 68.8582 49.1515 70.3729C46.9697 71.524 45.6363 73.7657 45.7576 76.1892Z" fill="#C1C1C1"/>
<path d="M59.3334 95.6377H21.4546C21.0303 95.6377 20.7273 95.3348 20.7273 94.9107V57.0437C20.7273 56.6196 21.0303 56.3166 21.4546 56.3166H36.7879C36.6667 55.7714 36.3637 55.2867 35.9394 54.8626C33.0303 52.3785 32.7273 48.0162 35.2121 45.108C37.697 42.1998 42.0606 41.8969 44.9697 44.381C47.8788 46.865 48.1818 51.2273 45.697 54.1355C45.4546 54.3779 45.2727 54.6202 45.0303 54.8626C44.6061 55.2261 44.2424 55.7714 44.1212 56.3166H59.4546C59.8788 56.3166 60.1818 56.6196 60.1818 57.0437V73.1599C60.1818 73.584 59.8788 73.8869 59.4546 73.8869H57.5758C57.2727 73.8869 57.0303 73.7052 56.9091 73.4628C55.5152 70.797 52.2424 69.7064 49.5758 71.0999C47.697 72.0693 46.5455 74.0081 46.6061 76.1892C46.7273 79.158 49.1515 81.4603 52.0606 81.4603H52.1212C54.1818 81.4603 56 80.3092 56.9091 78.4915C57.0303 78.2492 57.2727 78.0674 57.5758 78.0674H59.4546C59.8788 78.0674 60.1818 78.3704 60.1818 78.7945V94.9107C60.0606 95.3348 59.7576 95.6377 59.3334 95.6377ZM22.1818 94.1836H58.6061V79.5215H57.8788C56.6667 81.5815 54.4243 82.9144 52 82.9144H51.9394C48.1818 82.9144 45.1515 79.9456 45.0303 76.1892C44.9091 72.3722 47.8788 69.1611 51.697 69.0399C54.2424 68.9188 56.6061 70.2517 57.8788 72.4328H58.6061V57.7707H43.2121C42.7879 57.7707 42.4849 57.4678 42.4849 57.0437C42.4849 55.7714 43.0303 54.5596 44 53.772C45.3334 52.6208 46 50.9244 45.8788 49.2279C45.6364 46.1986 42.9697 43.9569 39.9394 44.1992C38.7273 44.3204 37.5758 44.8051 36.6667 45.6533C34.4849 47.7133 34.3637 51.1062 36.4243 53.3479C36.5455 53.5296 36.7273 53.6508 36.9091 53.772C37.8788 54.6202 38.3637 55.7714 38.3637 57.0437C38.3637 57.4678 38.0606 57.7707 37.6364 57.7707H22.1818V94.1836Z" fill="#244583"/>
<path d="M81.5157 100H80.4245C80.0001 100 79.697 99.6974 79.697 99.2732C79.697 98.8489 80.0001 98.5459 80.4245 98.5459H81.5157C81.9401 98.5459 82.2432 98.8489 82.2432 99.2732C82.2432 99.6974 81.9401 100 81.5157 100Z" fill="#244583"/>
<path d="M77.0303 100H63.8788C63.4546 100 63.1516 99.6971 63.1516 99.2729C63.1516 98.8488 63.4546 98.5459 63.8788 98.5459H77.0303C77.4546 98.5459 77.7576 98.8488 77.7576 99.2729C77.7576 99.6971 77.4546 100 77.0303 100Z" fill="#244583"/>
<path d="M101.394 87.2167V86.1258C101.394 85.7015 101.697 85.3985 102.121 85.3985C102.546 85.3985 102.849 85.7015 102.849 86.1258V87.2167C102.849 87.6409 102.546 87.944 102.121 87.944C101.758 87.944 101.394 87.6409 101.394 87.2167Z" fill="#244583"/>
<path d="M101.394 82.7327V69.5853C101.394 69.1612 101.697 68.8582 102.121 68.8582C102.545 68.8582 102.848 69.1612 102.848 69.5853V82.7327C102.848 83.1568 102.545 83.4597 102.121 83.4597C101.758 83.4597 101.394 83.1568 101.394 82.7327Z" fill="#244583"/>
<path d="M42.2427 2.51596C41.879 2.51596 41.6365 2.27354 41.5152 1.97051L41.394 1.24323C41.2727 0.879598 41.5152 0.455355 41.879 0.334143C42.2427 0.212931 42.6671 0.455355 42.7883 0.818992C42.7883 0.818992 42.7883 0.818992 42.7883 0.879598L42.9702 1.54626C43.0308 1.97051 42.7883 2.39475 42.4246 2.45536C42.364 2.45536 42.3033 2.51596 42.2427 2.51596Z" fill="#244583"/>
<path d="M43.8788 8.9981C43.7576 8.9981 43.697 8.9981 43.5758 8.93751C43.394 8.87693 43.2121 8.69517 43.1515 8.45282L42.2424 4.81759C42.1818 4.45406 42.4243 4.02995 42.7879 3.96937C43.1515 3.90878 43.5152 4.09054 43.6364 4.45406L44.3636 7.18049C45.3333 6.69579 46.3637 6.39285 47.4546 6.21109C48.6061 6.02933 49.8182 6.02933 50.9697 6.21109C51.394 6.27168 51.6364 6.6352 51.5758 7.05931C51.5152 7.48342 51.1515 7.72577 50.7273 7.66518C49.697 7.48342 48.6667 7.48342 47.6364 7.66518C46.4243 7.84695 45.2727 8.27106 44.2424 8.93751C44.1212 8.93751 44 8.9981 43.8788 8.9981Z" fill="#244583"/>
<path d="M97.2121 95.6377H59.3333C58.9091 95.6377 58.606 95.3348 58.606 94.9107V79.5215H57.8788C56.6666 81.5815 54.4242 82.9144 52 82.9144H51.9394C48.1212 82.9144 45.0303 79.8245 45.0303 75.9469C45.0303 74.1293 45.7575 72.4328 46.9697 71.0999C48.2424 69.767 50.0606 68.9794 51.9394 68.9794C54.3636 68.9794 56.606 70.2517 57.8788 72.3723H58.606V57.0437C58.606 56.6196 58.9091 56.3167 59.3333 56.3167H75.4545C75.8788 56.3167 76.1818 56.6196 76.1818 57.0437C76.1818 58.316 75.6363 59.5278 74.6666 60.3154C73.3939 61.4666 72.6666 63.1024 72.7878 64.7989C73.0303 67.8282 75.6363 70.0699 78.6666 69.8276C81.5151 69.5852 83.6969 67.2223 83.6969 64.3747C83.6969 62.7995 82.9697 61.2848 81.7575 60.2548C80.7878 59.4672 80.2424 58.2554 80.303 56.9831C80.303 56.559 80.606 56.2561 81.0303 56.2561H97.1515C97.5757 56.2561 97.8788 56.559 97.8788 56.9831V94.8501C97.9394 95.3348 97.6363 95.6377 97.2121 95.6377ZM60.0606 94.1836H96.4848V57.7708H81.8788C82 58.316 82.303 58.8007 82.7272 59.2248C84.2424 60.5578 85.1515 62.436 85.1515 64.4353C85.1515 66.3741 84.3636 68.1917 82.9697 69.5247C81.5757 70.8576 79.6363 71.524 77.7575 71.3423C74.3636 71.0999 71.6363 68.3735 71.3333 64.9806C71.1515 62.7995 72.0606 60.6789 73.6969 59.2854C74.1212 58.9219 74.4848 58.3766 74.606 57.8313H60.0606V73.2205C60.0606 73.6446 59.7575 73.9475 59.3333 73.9475H57.4545C57.1515 73.9475 56.9091 73.7658 56.7878 73.5234C55.3939 70.8576 52.1212 69.767 49.4545 71.1605C46.7878 72.554 45.6969 75.8257 47.0909 78.4916C48 80.3092 49.8788 81.4603 51.9394 81.4603H52C54.0606 81.4603 55.8788 80.3092 56.7878 78.4916C56.9091 78.2492 57.1515 78.0674 57.4545 78.0674H59.3333C59.7575 78.0674 60.0606 78.3704 60.0606 78.7945V94.1836Z" fill="#244583"/>
<path d="M9.87879 47.4104C9.75758 47.4104 9.63636 47.3498 9.51515 47.2892C9.33333 47.168 9.21212 47.0468 9.21212 46.8651L0 10.0887C0 9.9069 0 9.72514 0.121212 9.54338C0.242424 9.36162 0.363636 9.24044 0.545455 9.24044L37.3333 0.0311925C37.697 -0.0899818 38.1212 0.152367 38.2424 0.576477L41.9394 15.4203C42.4848 15.1174 42.8485 14.6933 43.1515 14.148C44.1212 12.2092 46 10.8157 48.1818 10.4522C51.5758 9.9069 54.8485 11.9063 55.8788 15.178C57.0909 18.8132 55.0909 22.6908 51.4545 23.9025C49.3333 24.569 47.0909 24.2661 45.2727 22.9331C44.7879 22.6302 44.2424 22.4484 43.697 22.4484L47.3939 37.2923C47.5151 37.6558 47.2727 38.0799 46.8485 38.2011L31.2121 42.0787C30.8485 42.1999 30.4242 41.9575 30.303 41.5334C30 40.3217 30.2424 38.9887 30.9697 37.9588C31.9394 36.5653 32.2424 34.7476 31.697 33.1118C30.7273 30.2642 27.6364 28.6889 24.7273 29.6583C23.5758 30.0824 22.5455 30.8095 21.8788 31.9C20.2424 34.4447 20.9697 37.777 23.4545 39.4128C23.6364 39.534 23.8182 39.6552 24 39.7158C25.0909 40.2611 25.9394 41.291 26.2424 42.5028C26.3636 42.8663 26.1212 43.2904 25.697 43.4116L10.0606 47.2892C10 47.4104 9.93939 47.4104 9.87879 47.4104ZM1.63636 10.4522L10.4242 45.7745L24.5455 42.2604C24.303 41.7757 23.8788 41.3516 23.3333 41.1093C19.9394 39.4128 18.5455 35.2323 20.2424 31.8395C21.9394 28.4466 26.1212 27.0531 29.5152 28.7495C32.9091 30.4459 34.303 34.6265 32.6061 38.0193C32.4848 38.3223 32.303 38.6252 32.1212 38.8676C31.7576 39.3523 31.5758 39.8975 31.5758 40.5034L45.7576 36.9894L42.0606 22.0243C41.9394 21.6608 42.1818 21.2367 42.6061 21.1155C42.6061 21.1155 42.6061 21.1155 42.6667 21.1155C43.8788 20.8126 45.1515 21.0549 46.1818 21.782C48.6667 23.539 52.0606 22.9331 53.8182 20.5097C55.5758 18.0256 54.9697 14.6327 52.5454 12.8757C50.0606 11.1186 46.6667 11.7245 44.9091 14.148C44.7879 14.3903 44.6061 14.5721 44.4848 14.8145C43.9394 15.9656 42.9091 16.7532 41.6364 17.0562C41.2727 17.1774 40.8485 16.935 40.7273 16.5109L36.9697 1.66705L1.63636 10.4522Z" fill="#244583"/>
<path d="M78.3031 71.3422C76.5455 71.3422 74.8485 70.6758 73.5758 69.4641C70.7879 66.8588 70.6061 62.4965 73.2121 59.7095C73.394 59.5278 73.5758 59.346 73.7576 59.1642C74.1818 58.8007 74.4849 58.316 74.6061 57.7101H59.3334C58.9091 57.7101 58.6061 57.4072 58.6061 56.9831V40.9275C58.6061 40.5034 58.9091 40.2005 59.3334 40.2005C60.6061 40.2005 61.7576 40.7457 62.6061 41.6546C64.6061 43.9569 68.0606 44.1992 70.3031 42.2604C72.6061 40.2611 72.8485 36.8076 70.9091 34.5659C68.9091 32.2636 65.4546 32.0212 63.2121 33.96C63.0303 34.1418 62.8485 34.3235 62.6667 34.5053C61.8182 35.4747 60.6667 36.02 59.394 36.02C58.9697 36.02 58.6667 35.717 58.6667 35.2929V19.1161C58.6667 18.692 58.9697 18.3891 59.394 18.3891H97.2728C97.697 18.3891 98 18.692 98 19.1161V56.9831C98 57.4072 97.697 57.7101 97.2728 57.7101H81.9394C82.1212 58.2554 82.4243 58.8007 82.8485 59.1642C84.4243 60.4972 85.2728 62.5571 85.2121 64.6171C85.0303 68.1311 82.3031 70.9787 78.7879 71.2817C78.6061 71.3423 78.4243 71.3422 78.3031 71.3422ZM60.0606 56.3166H75.4546C75.8788 56.3166 76.1818 56.6196 76.1818 57.0437C76.1818 58.316 75.6364 59.4672 74.7273 60.3154C72.4243 62.2542 72.1818 65.7076 74.1818 68.01C75.3334 69.3429 77.0303 70.0093 78.7273 69.8882C81.5152 69.6458 83.6364 67.4041 83.8182 64.6171C83.8788 62.9812 83.2121 61.406 81.9394 60.3154C80.9697 59.4672 80.4243 58.316 80.4243 57.0437C80.4243 56.6196 80.7273 56.3166 81.1515 56.3166H96.5455V19.8432H60.0606V34.4447C60.6061 34.2629 61.1515 33.96 61.5152 33.5359C62.9697 31.9 65.0909 30.9912 67.2727 31.173C71.0909 31.4759 73.9394 34.8082 73.6364 38.6252C73.3334 42.4422 70 45.2898 66.1818 44.9868C64.3637 44.8657 62.6667 43.9569 61.4546 42.5634C61.0909 42.1393 60.6061 41.8363 60 41.7151L60.0606 56.3166Z" fill="#244583"/>
<path d="M26.5457 71.4029C27.0307 71.4029 27.4551 71.8271 27.4551 72.312V73.221C27.4551 73.7059 27.0307 74.1301 26.5457 74.0695C26.0607 74.0695 25.697 73.6453 25.697 73.221V72.312C25.6363 71.8271 26.0607 71.4029 26.5457 71.4029Z" fill="white"/>
<path d="M26.5454 75.9469C27.0303 75.9469 27.4545 76.371 27.4545 76.8557V88.3067C27.4545 88.7914 27.0303 89.2155 26.5454 89.1549C26.0606 89.1549 25.697 88.7308 25.697 88.3067V76.8557C25.6363 76.3104 26.0606 75.9469 26.5454 75.9469Z" fill="white"/>
</svg>

<svg xmlns="http://www.w3.org/2000/svg" width="109" height="100" fill="none" xmlns:v="https://vecta.io/nano"><path d="M97.212 57.044v37.867H59.333V78.795h-1.879c-1.03 2.06-3.152 3.393-5.455 3.393-3.455.061-6.242-2.726-6.303-6.119-.061-3.454 2.727-6.24 6.121-6.301 2.364 0 4.545 1.272 5.636 3.393h1.879V57.044h16.121a3.64 3.64 0 0 1-1.273 2.726c-1.454 1.272-2.242 3.151-2.121 5.089.242 3.393 3.273 5.938 6.667 5.695 3.212-.242 5.697-2.969 5.697-6.18 0-1.818-.788-3.514-2.182-4.665-.788-.666-1.212-1.696-1.212-2.726l16.182.061z" fill="#9fefde"/><path d="M92.606 57.044h4.606v37.867h-4.606V57.044z" fill="#24c4a1"/><path d="M55.152 15.481c1.03 3.272-.727 6.725-3.939 7.816-1.879.606-3.939.303-5.515-.848-.848-.606-1.939-.788-2.909-.545l3.879 15.631-15.697 3.878c-.242-1.03-.061-2.121.545-2.969 1.151-1.575 1.455-3.635.788-5.513-1.091-3.272-4.606-4.968-7.879-3.878-3.03 1.03-4.788 4.241-4.061 7.392.424 1.757 1.636 3.211 3.212 3.999.909.485 1.576 1.333 1.818 2.302L9.879 46.684.728 9.907 37.515.758l3.879 15.632c1.03-.242 1.879-.969 2.364-1.878.909-1.757 2.545-2.969 4.485-3.272a6.2 6.2 0 0 1 6.909 4.241z" fill="#9fefde"/><path d="M55.394 17.662c-1.394-1.939-3.697-2.848-6.061-2.484-1.939.303-3.576 1.515-4.485 3.272-.485.969-1.333 1.636-2.364 1.878L38.606 4.696 1.879 13.845.728 9.301 37.515.152l3.879 15.631c1.03-.242 1.879-.969 2.364-1.878.909-1.757 2.545-2.969 4.485-3.272 3.394-.545 6.546 1.696 7.151 5.089.061.667.061 1.333 0 1.939z" fill="#24c4a1"/><path d="M81.091 57.044a3.64 3.64 0 0 0 1.273 2.726 6.22 6.22 0 0 1 2.121 4.847c-.121 3.393-2.97 6.119-6.364 5.998s-6.061-2.848-6-6.24c0-1.818.788-3.514 2.182-4.665.788-.666 1.212-1.636 1.212-2.726H59.333V40.928a3.68 3.68 0 0 1 2.727 1.212c2.242 2.605 6.121 2.908 8.727.666 1.515-1.272 2.303-3.211 2.121-5.15-.182-3.029-2.606-5.513-5.697-5.756a6.02 6.02 0 0 0-5.152 2.121c-.667.788-1.697 1.272-2.727 1.272V19.116h37.879v37.867l-16.121.061z" fill="#ebece9"/><path d="M97.212 19.116v37.867h-4.546V24.084H59.333v-4.908l37.879-.061zM45.758 76.189c.121 3.332 2.909 5.998 6.242 5.998 2.303 0 4.424-1.333 5.455-3.393h1.879V94.91H21.455V57.044h16.121c0-1.03-.424-1.999-1.212-2.726a6.16 6.16 0 0 1-.667-8.725c1.273-1.515 3.212-2.302 5.152-2.181 3.03.182 5.515 2.605 5.758 5.695.182 1.939-.606 3.878-2.121 5.15a3.64 3.64 0 0 0-1.273 2.726h16.121v16.116h-1.879c-1.515-3.029-5.273-4.241-8.303-2.726-2.182 1.151-3.515 3.393-3.394 5.816z" fill="#c1c1c1"/><g fill="#244583"><path d="M59.333 95.638H21.455a.7.7 0 0 1-.727-.727V57.044a.7.7 0 0 1 .727-.727h15.333c-.121-.545-.424-1.03-.849-1.454-2.909-2.484-3.212-6.846-.727-9.755s6.849-3.211 9.758-.727 3.212 6.846.727 9.755l-.667.727c-.424.364-.788.909-.909 1.454h15.333a.7.7 0 0 1 .727.727V73.16a.7.7 0 0 1-.727.727h-1.879c-.303 0-.546-.182-.667-.424-1.394-2.666-4.667-3.756-7.333-2.363-1.879.969-3.03 2.908-2.97 5.089.121 2.969 2.545 5.271 5.455 5.271h.061a5.32 5.32 0 0 0 4.788-2.969c.121-.242.364-.424.667-.424h1.879a.7.7 0 0 1 .727.727V94.91c-.121.424-.424.727-.848.727zm-37.152-1.454h36.424V79.522h-.727c-1.212 2.06-3.454 3.393-5.879 3.393h-.061c-3.758 0-6.788-2.969-6.909-6.725-.121-3.817 2.849-7.028 6.667-7.149 2.545-.121 4.909 1.212 6.182 3.393h.727V57.771H43.212a.7.7 0 0 1-.727-.727c0-1.272.545-2.484 1.515-3.272 1.333-1.151 2-2.848 1.879-4.544-.242-3.029-2.909-5.271-5.939-5.029-1.212.121-2.364.606-3.273 1.454-2.182 2.06-2.303 5.453-.242 7.695.121.182.303.303.485.424.97.848 1.455 1.999 1.455 3.272a.7.7 0 0 1-.727.727H22.182v36.413zM81.516 100h-1.091a.727.727 0 1 1 0-1.454h1.091a.727.727 0 1 1 0 1.454zm-4.486 0H63.879a.727.727 0 1 1 0-1.454H77.03a.727.727 0 1 1 0 1.454zm24.364-12.783v-1.091a.727.727 0 1 1 1.455 0v1.091a.7.7 0 0 1-.728.727c-.363 0-.727-.303-.727-.727z"/><path d="M101.394 82.733V69.585a.727.727 0 1 1 1.454 0v13.147a.7.7 0 0 1-.727.727c-.363 0-.727-.303-.727-.727zM42.243 2.516c-.364 0-.606-.242-.727-.545l-.121-.727c-.121-.364.121-.788.485-.909s.788.121.909.485v.06l.182.667c.061.424-.182.848-.546.909-.061 0-.121.061-.182.061zm1.636 6.482c-.121 0-.182 0-.303-.061-.182-.061-.364-.242-.424-.485l-.909-3.635c-.061-.364.182-.788.545-.848s.727.121.849.485l.727 2.726c.97-.485 2-.788 3.091-.969a11.4 11.4 0 0 1 3.515 0c.424.061.667.424.606.848s-.424.666-.849.606a8.83 8.83 0 0 0-3.091 0c-1.212.182-2.364.606-3.394 1.272-.121 0-.242.061-.364.061zm53.333 86.64H59.333a.7.7 0 0 1-.727-.727V79.522h-.727c-1.212 2.06-3.455 3.393-5.879 3.393h-.061c-3.818 0-6.909-3.09-6.909-6.968 0-1.818.727-3.514 1.939-4.847 1.273-1.333 3.091-2.121 4.97-2.121 2.424 0 4.667 1.272 5.939 3.393h.727V57.044a.7.7 0 0 1 .727-.727h16.121a.7.7 0 0 1 .727.727c0 1.272-.545 2.484-1.515 3.272-1.273 1.151-2 2.787-1.879 4.484.242 3.029 2.849 5.271 5.879 5.029 2.849-.242 5.03-2.605 5.03-5.453 0-1.575-.727-3.09-1.939-4.12-.97-.788-1.515-1.999-1.454-3.272a.7.7 0 0 1 .727-.727H97.15a.7.7 0 0 1 .727.727V94.85c.061.485-.242.788-.667.788zM60.06 94.184h36.424V57.771H81.879c.121.545.424 1.03.848 1.454 1.515 1.333 2.424 3.211 2.424 5.21a7.01 7.01 0 0 1-2.182 5.089 6.69 6.69 0 0 1-5.212 1.818c-3.394-.242-6.121-2.969-6.424-6.362a6.77 6.77 0 0 1 2.364-5.695c.424-.364.788-.909.909-1.454H60.061V73.22a.7.7 0 0 1-.727.727h-1.879c-.303 0-.545-.182-.667-.424-1.394-2.666-4.667-3.756-7.333-2.363s-3.758 4.665-2.364 7.331c.909 1.818 2.788 2.969 4.849 2.969H52a5.32 5.32 0 0 0 4.788-2.969c.121-.242.364-.424.667-.424h1.879a.7.7 0 0 1 .727.727v15.389z"/><path d="M9.879 47.41c-.121 0-.242-.061-.364-.121-.182-.121-.303-.242-.303-.424L0 10.089c0-.182 0-.364.121-.545s.242-.303.424-.303L37.333.031c.364-.121.788.121.909.545l3.697 14.844c.545-.303.909-.727 1.212-1.272a6.91 6.91 0 0 1 5.03-3.696c3.394-.545 6.667 1.454 7.697 4.726 1.212 3.635-.788 7.513-4.424 8.724-2.121.666-4.364.364-6.182-.969-.485-.303-1.03-.485-1.576-.485l3.697 14.844c.121.364-.121.788-.545.909l-15.636 3.878c-.364.121-.788-.121-.909-.545a4.41 4.41 0 0 1 .667-3.575c.97-1.393 1.273-3.211.727-4.847-.97-2.848-4.061-4.423-6.97-3.454-1.151.424-2.182 1.151-2.849 2.242-1.636 2.545-.909 5.877 1.576 7.513.182.121.364.242.546.303a4.33 4.33 0 0 1 2.242 2.787c.121.364-.121.788-.545.909L10.061 47.29c-.061.121-.121.121-.182.121zM1.636 10.452l8.788 35.322 14.121-3.514a2.49 2.49 0 0 0-1.212-1.151 6.94 6.94 0 0 1-3.091-9.27c1.697-3.393 5.879-4.786 9.273-3.09a6.94 6.94 0 0 1 3.091 9.27c-.121.303-.303.606-.485.848-.364.485-.545 1.03-.545 1.636l14.182-3.514-3.697-14.965c-.121-.364.121-.788.545-.909h.061c1.212-.303 2.485-.061 3.515.666 2.485 1.757 5.879 1.151 7.636-1.272a5.5 5.5 0 0 0-1.273-7.634c-2.485-1.757-5.879-1.151-7.636 1.272-.121.242-.303.424-.424.667-.545 1.151-1.576 1.939-2.848 2.242-.364.121-.788-.121-.909-.545L36.97 1.667 1.636 10.452zm76.667 60.89a6.85 6.85 0 0 1-4.727-1.878c-2.788-2.605-2.97-6.968-.364-9.755l.545-.545a2.53 2.53 0 0 0 .849-1.454H59.333a.7.7 0 0 1-.727-.727V40.928a.7.7 0 0 1 .727-.727c1.273 0 2.424.545 3.273 1.454 2 2.302 5.454 2.545 7.697.606 2.303-1.999 2.545-5.453.606-7.694-2-2.302-5.454-2.545-7.697-.606l-.545.545c-.849.969-2 1.515-3.273 1.515a.7.7 0 0 1-.727-.727V19.116a.7.7 0 0 1 .727-.727h37.879a.7.7 0 0 1 .727.727v37.867a.7.7 0 0 1-.727.727H81.939c.182.545.485 1.091.909 1.454 1.576 1.333 2.424 3.393 2.364 5.453a7.04 7.04 0 0 1-6.424 6.665c-.182.061-.364.061-.485.061zM60.061 56.317h15.394a.7.7 0 0 1 .727.727c0 1.272-.545 2.423-1.454 3.272-2.303 1.939-2.546 5.392-.546 7.695 1.152 1.333 2.849 1.999 4.546 1.878 2.788-.242 4.909-2.484 5.091-5.271a5.37 5.37 0 0 0-1.879-4.302c-.97-.848-1.515-1.999-1.515-3.272a.7.7 0 0 1 .727-.727h15.394V19.843H60.061v14.601c.545-.182 1.091-.485 1.455-.909 1.455-1.636 3.576-2.545 5.758-2.363 3.818.303 6.667 3.635 6.364 7.452a6.93 6.93 0 0 1-7.455 6.362c-1.818-.121-3.515-1.03-4.727-2.423-.364-.424-.849-.727-1.455-.848l.061 14.602z"/></g><path d="M26.546 71.403c.485 0 .909.424.909.909v.909c0 .485-.424.909-.909.849a.87.87 0 0 1-.849-.849v-.909c-.061-.485.364-.909.849-.909zm-.001 4.544c.485 0 .909.424.909.909v11.451c0 .485-.424.909-.909.848-.485 0-.848-.424-.848-.848V76.856c-.061-.545.364-.909.848-.909z" fill="#fff"/></svg>
